X: 21222
T: Keane's Of Dublin
R: hornpipe
M: 4/4
K: Aminor
|:A2 GE AD D2|A2 GE cded|A2 GE AD D2|G3A GEDG|
A2 GE AD D2|A2 GE cded|A2 GE AD D2|cABG EA A2:|
|:cded cA A2|BG G2 EAcA|cded cA A2|cABG EA A2|
cded cA A2|BG G2 cBcd|edeg aged|cABG EA A2:|

